images/features-3.svg

<svg width="90" height="90" viewBox="0 0 90 90" fill="none" xmlns="http://www.w3.org/2000/svg">
<path d="M28.5938 23.375H64.5312C65.8008 23.375 66.875 24.4492 66.875 25.7188C66.875 27.0859 65.8008 28.0625 64.5312 28.0625H28.5938C26.3477 28.0625 24.6875 29.8203 24.6875 31.9688V58.5312C24.6875 60.7773 26.3477 62.4375 28.5938 62.4375H61.4062C63.5547 62.4375 65.3125 60.7773 65.3125 58.5312V41.3438C65.3125 39.1953 63.5547 37.4375 61.4062 37.4375H31.7188C30.3516 37.4375 29.375 36.4609 29.375 35.0938C29.375 33.8242 30.3516 32.75 31.7188 32.75H61.4062C66.0938 32.75 70 36.6562 70 41.3438V58.5312C70 63.3164 66.0938 67.125 61.4062 67.125H28.5938C23.8086 67.125 20 63.3164 20 58.5312V31.9688C20 27.2812 23.8086 23.375 28.5938 23.375ZM57.5 53.0625C55.7422 53.0625 54.375 51.6953 54.375 49.9375C54.375 48.2773 55.7422 46.8125 57.5 46.8125C59.1602 46.8125 60.625 48.2773 60.625 49.9375C60.625 51.6953 59.1602 53.0625 57.5 53.0625Z" fill="#D0C9B2"/>
</svg>

<svg xmlns="http://www.w3.org/2000/svg" width="90" height="90" fill="none" viewBox="0 0 90 90"><path fill="#d0c9b2" d="M28.594 23.375H64.53c1.27 0 2.344 1.074 2.344 2.344 0 1.367-1.074 2.343-2.344 2.343H28.594c-2.246 0-3.907 1.758-3.907 3.907V58.53c0 2.246 1.66 3.907 3.907 3.907h32.812c2.149 0 3.907-1.66 3.907-3.907V41.344a3.92 3.92 0 0 0-3.907-3.907H31.72c-1.367 0-2.344-.976-2.344-2.343 0-1.27.977-2.344 2.344-2.344h29.687c4.688 0 8.594 3.906 8.594 8.594V58.53c0 4.785-3.906 8.594-8.594 8.594H28.594A8.544 8.544 0 0 1 20 58.531V31.97c0-4.688 3.809-8.594 8.594-8.594M57.5 53.063c-1.758 0-3.125-1.368-3.125-3.126 0-1.66 1.367-3.124 3.125-3.124 1.66 0 3.125 1.464 3.125 3.124 0 1.758-1.465 3.126-3.125 3.126"/></svg>
